Suru++-Ubuntu/actions/symbolic/view-more-horizontal-symbolic.svg

<svg xmlns="http://www.w3.org/2000/svg" width="16" height="16" version="1.1">
 <g transform="translate(-31.999847,-280)">
  <path d="m35.80469 287c-0.53643 0-0.80469 1.5e-4 -0.80469 0.625v0.75c0 0.62485 0.26826 0.625 0.80469 0.625h0.39062c0.53643 0 0.80469-1.5e-4 0.80469-0.625v-0.75c0-0.60253-0.26826-0.625-0.80469-0.625z" style="fill:#808080"/>
  <path d="m39.80469 287c-0.53643 0-0.80469 1.5e-4 -0.80469 0.625v0.75c0 0.62485 0.26826 0.625 0.80469 0.625h0.39062c0.53643 0 0.80469-1.5e-4 0.80469-0.625v-0.75c0-0.60253-0.26826-0.625-0.80469-0.625z" style="fill:#808080"/>
  <path d="m43.80469 287c-0.53643 0-0.80469 1.5e-4 -0.80469 0.625v0.75c0 0.62485 0.26826 0.625 0.80469 0.625h0.39062c0.53643 0 0.80469-1.5e-4 0.80469-0.625v-0.75c0-0.60253-0.26826-0.625-0.80469-0.625z" style="fill:#808080"/>
 </g>
</svg>

<?xml version='1.0' encoding='UTF-8' standalone='no'?>
<svg xmlns:cc='http://creativecommons.org/ns#' xmlns:dc='http://purl.org/dc/elements/1.1/' height='16' id='svg7384' xmlns:osb='http://www.openswatchbook.org/uri/2009/osb' xmlns:rdf='http://www.w3.org/1999/02/22-rdf-syntax-ns#' xmlns:svg='http://www.w3.org/2000/svg' version='1.1' width='16' xmlns='http://www.w3.org/2000/svg'>
  <metadata id='metadata20854'>
    <rdf:RDF>
      <cc:Work rdf:about=''>
        <dc:title/>
        <dc:format>image/svg+xml</dc:format>
        <dc:type rdf:resource='http://purl.org/dc/dcmitype/StillImage'/>
      </cc:Work>
    </rdf:RDF>
  </metadata>
  <defs id='defs7386'>
    <linearGradient id='linearGradient5606' osb:paint='solid'>
      <stop id='stop5608' offset='0' style='stop-color:#000000;stop-opacity:1;'/>
    </linearGradient>
    <linearGradient id='linearGradient4526' osb:paint='solid'>
      <stop id='stop4528' offset='0' style='stop-color:#ffffff;stop-opacity:1;'/>
    </linearGradient>
    <linearGradient id='linearGradient3600-4' osb:paint='gradient'>
      <stop id='stop3602-7' offset='0' style='stop-color:#f4f4f4;stop-opacity:1'/>
      <stop id='stop3604-6' offset='1' style='stop-color:#dbdbdb;stop-opacity:1'/>
    </linearGradient>
  </defs>
  <g id='layer9' label='status' style='display:inline' transform='translate(-273.00005,87)'/>
  <g id='layer2' style='display:inline' transform='translate(-31.999847,-280)'/>
  <g id='layer4' style='display:inline' transform='translate(-31.999847,-280)'/>
  <g id='g1812' style='display:inline' transform='translate(-31.999847,-280)'/>
  <g id='g6217' style='display:inline' transform='translate(-31.999847,-280)'/>
  <g id='layer3' style='display:inline' transform='translate(-31.999847,-280)'/>
  <g id='g1833' style='display:inline' transform='translate(-31.999847,-280)'/>
  <g id='layer1' style='display:inline' transform='translate(-31.999847,-280)'>
    
    <path d='M 35.80469,287 C 35.26826,287 35,287.00015 35,287.625 v 0.75 c 0,0.62485 0.26826,0.625 0.80469,0.625 h 0.39062 C 36.73174,289 37,288.99985 37,288.375 v -0.75 C 37,287.02247 36.73174,287 36.19531,287 Z' id='path4751' style='color:#000000;display:inline;overflow:visible;visibility:visible;opacity:1;fill:#808080;fill-opacity:1;fill-rule:nonzero;stroke:none;stroke-width:10;marker:none;enable-background:accumulate'/>
    <path d='M 39.80469,287 C 39.26826,287 39,287.00015 39,287.625 v 0.75 c 0,0.62485 0.26826,0.625 0.80469,0.625 h 0.39062 C 40.73174,289 41,288.99985 41,288.375 v -0.75 C 41,287.02247 40.73174,287 40.19531,287 Z' id='path4749' style='color:#000000;display:inline;overflow:visible;visibility:visible;opacity:1;fill:#808080;fill-opacity:1;fill-rule:nonzero;stroke:none;stroke-width:10;marker:none;enable-background:accumulate'/>
    <path d='M 43.80469,287 C 43.26826,287 43,287.00015 43,287.625 v 0.75 c 0,0.62485 0.26826,0.625 0.80469,0.625 h 0.39062 C 44.73174,289 45,288.99985 45,288.375 v -0.75 C 45,287.02247 44.73174,287 44.19531,287 Z' id='path4747' style='color:#000000;display:inline;overflow:visible;visibility:visible;opacity:1;fill:#808080;fill-opacity:1;fill-rule:nonzero;stroke:none;stroke-width:10;marker:none;enable-background:accumulate'/>
  </g>
</svg>
